flaticon/gastronomy/dairy.svg

<svg xmlns="http://www.w3.org/2000/svg" width="32" height="32" viewBox="0 0 24 24">
    <defs>
        <linearGradient id="a" gradientUnits="userSpaceOnUse" x1="1.663" y1="26.521" x2="51.379" y2="26.521" gradientTransform="scale(.45247)">
            <stop offset="0" stop-color="#fff"/>
            <stop offset="1"/>
        </linearGradient>
    </defs>
    <path d="M 23.246094 8.617188 L 23.246094 8.144531 C 23.246094 6.015625 21.992188 4.964844 21.074219 4.191406 C 20.988281 4.121094 20.792969 3.964844 20.648438 3.792969 C 20.578125 3.683594 20.5625 3.570312 20.570312 3.480469 C 20.578125 3.257812 20.699219 3.039062 20.890625 2.894531 C 20.90625 2.882812 20.917969 2.867188 20.933594 2.855469 C 20.988281 2.808594 21.039062 2.761719 21.089844 2.707031 C 21.109375 2.683594 21.128906 2.660156 21.144531 2.636719 C 21.191406 2.582031 21.226562 2.523438 21.261719 2.460938 C 21.277344 2.4375 21.289062 2.414062 21.300781 2.386719 C 21.335938 2.320312 21.359375 2.246094 21.378906 2.171875 C 21.386719 2.152344 21.394531 2.128906 21.398438 2.109375 C 21.421875 2.011719 21.433594 1.914062 21.433594 1.808594 L 21.433594 1.355469 C 21.433594 0.609375 20.828125 0 20.078125 0 L 15.101562 0 C 14.351562 0 13.742188 0.609375 13.742188 1.355469 L 13.742188 1.808594 C 13.742188 1.914062 13.757812 2.015625 13.78125 2.113281 C 13.785156 2.132812 13.792969 2.15625 13.800781 2.179688 C 13.824219 2.253906 13.847656 2.328125 13.882812 2.398438 C 13.894531 2.421875 13.90625 2.441406 13.917969 2.464844 C 13.957031 2.53125 14 2.597656 14.050781 2.660156 C 14.0625 2.675781 14.078125 2.691406 14.089844 2.707031 C 14.15625 2.78125 14.226562 2.847656 14.304688 2.90625 C 14.304688 2.90625 14.308594 2.90625 14.308594 2.910156 C 14.496094 3.042969 14.628906 3.253906 14.65625 3.457031 C 14.671875 3.601562 14.636719 3.730469 14.546875 3.835938 C 14.523438 3.863281 14.496094 3.894531 14.464844 3.917969 C 14.363281 4.007812 14.253906 4.097656 14.144531 4.1875 C 13.210938 4.960938 11.933594 6.015625 11.933594 8.144531 L 11.933594 13.25 C 11.929688 13.246094 11.929688 13.246094 11.925781 13.242188 C 11.121094 12.5625 10.839844 11.960938 10.742188 11.617188 C 11.1875 11.394531 11.496094 10.9375 11.496094 10.40625 C 11.496094 9.660156 10.886719 9.050781 10.136719 9.050781 L 4.707031 9.050781 C 3.960938 9.050781 3.351562 9.660156 3.351562 10.40625 C 3.351562 10.972656 3.695312 11.457031 4.1875 11.660156 C 4.078125 12.011719 3.785156 12.59375 3.015625 13.242188 C 1.269531 14.722656 0.664062 16.859375 0.761719 18.761719 C 0.765625 18.800781 0.765625 18.839844 0.769531 18.878906 C 0.78125 19.097656 0.804688 19.308594 0.839844 19.515625 C 0.847656 19.574219 0.859375 19.628906 0.867188 19.683594 C 0.902344 19.875 0.941406 20.058594 0.988281 20.238281 C 0.996094 20.269531 1.003906 20.296875 1.011719 20.328125 C 1.054688 20.484375 1.101562 20.632812 1.15625 20.78125 C 1.175781 20.839844 1.203125 20.894531 1.226562 20.953125 C 1.230469 20.96875 1.234375 20.988281 1.242188 21.003906 L 1.355469 21.285156 L 1.367188 21.285156 C 2.15625 22.980469 3.589844 23.988281 5.296875 24 L 9.644531 24 C 10.648438 23.992188 11.554688 23.640625 12.296875 23.007812 C 12.6875 23.605469 13.355469 23.980469 14.097656 23.980469 L 21.082031 23.980469 C 22.273438 23.980469 23.242188 23.011719 23.242188 21.820312 L 23.242188 20.382812 L 23.246094 20.382812 Z M 1.953125 20.304688 C 1.914062 20.1875 1.878906 20.0625 1.847656 19.941406 C 1.832031 19.875 1.816406 19.808594 1.800781 19.742188 C 1.785156 19.667969 1.773438 19.59375 1.757812 19.519531 C 1.695312 19.164062 1.660156 18.796875 1.660156 18.421875 C 1.660156 18.421875 1.660156 18.421875 1.660156 18.417969 C 1.660156 17.988281 1.699219 17.550781 1.785156 17.121094 C 1.789062 17.109375 1.789062 17.097656 1.792969 17.089844 C 1.816406 16.976562 1.84375 16.863281 1.875 16.75 C 1.890625 16.6875 1.90625 16.628906 1.925781 16.566406 C 1.953125 16.472656 1.980469 16.378906 2.011719 16.289062 C 2.046875 16.195312 2.082031 16.101562 2.121094 16.011719 C 2.140625 15.960938 2.160156 15.90625 2.183594 15.855469 L 6.050781 15.855469 C 6.300781 15.855469 6.503906 16.058594 6.503906 16.308594 L 6.503906 19.929688 C 6.503906 20.175781 6.300781 20.378906 6.050781 20.378906 L 1.976562 20.378906 C 1.96875 20.355469 1.960938 20.328125 1.953125 20.304688 Z M 12.753906 20.898438 C 12.707031 21 12.65625 21.101562 12.601562 21.199219 C 12.582031 21.234375 12.558594 21.269531 12.539062 21.308594 C 12.40625 21.53125 12.261719 21.742188 12.097656 21.929688 L 11.984375 22.0625 C 11.359375 22.722656 10.558594 23.085938 9.644531 23.09375 L 5.304688 23.09375 C 4.074219 23.085938 3.054688 22.429688 2.390625 21.285156 L 6.050781 21.285156 C 6.800781 21.285156 7.410156 20.675781 7.410156 19.925781 L 7.410156 16.308594 C 7.410156 15.558594 6.800781 14.949219 6.050781 14.949219 L 2.6875 14.949219 C 2.941406 14.582031 3.242188 14.238281 3.601562 13.933594 C 4.625 13.066406 4.976562 12.253906 5.097656 11.765625 L 5.671875 11.765625 C 5.921875 11.765625 6.125 11.5625 6.125 11.3125 C 6.125 11.0625 5.921875 10.859375 5.671875 10.859375 L 4.707031 10.859375 C 4.457031 10.859375 4.257812 10.65625 4.257812 10.40625 C 4.257812 10.15625 4.457031 9.953125 4.707031 9.953125 L 10.136719 9.953125 C 10.386719 9.953125 10.589844 10.15625 10.589844 10.40625 C 10.589844 10.65625 10.386719 10.859375 10.136719 10.859375 L 7.988281 10.859375 C 7.738281 10.859375 7.535156 11.0625 7.535156 11.3125 C 7.535156 11.5625 7.738281 11.765625 7.988281 11.765625 L 9.847656 11.765625 C 9.964844 12.253906 10.316406 13.066406 11.339844 13.933594 C 11.574219 14.132812 11.785156 14.347656 11.972656 14.574219 L 12.03125 14.648438 C 12.140625 14.78125 12.234375 14.917969 12.328125 15.058594 C 12.363281 15.109375 12.394531 15.164062 12.425781 15.21875 C 12.472656 15.292969 12.515625 15.367188 12.558594 15.445312 C 12.617188 15.554688 12.675781 15.667969 12.726562 15.777344 C 12.730469 15.789062 12.738281 15.800781 12.742188 15.8125 C 13.242188 16.921875 13.375 18.160156 13.226562 19.277344 C 13.226562 19.28125 13.222656 19.28125 13.222656 19.285156 C 13.207031 19.398438 13.1875 19.507812 13.167969 19.617188 C 13.148438 19.703125 13.132812 19.785156 13.113281 19.867188 C 13.101562 19.910156 13.09375 19.953125 13.082031 19.992188 C 13.019531 20.234375 12.9375 20.464844 12.84375 20.6875 C 12.816406 20.757812 12.785156 20.828125 12.753906 20.898438 Z M 22.339844 19.476562 L 18.269531 19.476562 L 18.269531 9.519531 L 22.339844 9.519531 Z M 20.152344 4.597656 C 20.261719 4.691406 20.375 4.785156 20.492188 4.886719 C 21.359375 5.613281 22.339844 6.4375 22.339844 8.144531 L 22.339844 8.617188 L 17.363281 8.617188 L 17.363281 20.378906 L 22.339844 20.378906 L 22.339844 21.816406 C 22.339844 22.511719 21.777344 23.074219 21.082031 23.074219 L 14.097656 23.074219 C 13.59375 23.074219 13.148438 22.773438 12.949219 22.320312 C 13.246094 21.9375 13.5 21.492188 13.703125 20.996094 C 13.710938 20.972656 13.71875 20.949219 13.726562 20.929688 C 13.746094 20.878906 13.769531 20.832031 13.789062 20.78125 C 13.820312 20.691406 13.847656 20.601562 13.875 20.507812 C 13.882812 20.488281 13.890625 20.464844 13.894531 20.441406 C 14.449219 18.589844 14.292969 16.105469 12.839844 14.207031 L 12.839844 8.144531 C 12.839844 6.441406 13.835938 5.613281 14.71875 4.886719 C 14.835938 4.789062 14.949219 4.695312 15.054688 4.605469 C 15.121094 4.546875 15.179688 4.488281 15.234375 4.421875 C 15.488281 4.125 15.601562 3.742188 15.554688 3.347656 C 15.546875 3.285156 15.527344 3.226562 15.511719 3.167969 L 15.679688 3.167969 C 15.929688 3.167969 16.132812 2.964844 16.132812 2.714844 C 16.132812 2.464844 15.929688 2.261719 15.679688 2.261719 L 15.101562 2.261719 C 14.988281 2.261719 14.890625 2.21875 14.8125 2.152344 C 14.796875 2.136719 14.78125 2.125 14.769531 2.109375 C 14.738281 2.078125 14.710938 2.039062 14.691406 1.996094 C 14.6875 1.988281 14.683594 1.976562 14.679688 1.964844 C 14.660156 1.917969 14.648438 1.867188 14.648438 1.808594 L 14.648438 1.355469 C 14.648438 1.109375 14.851562 0.90625 15.101562 0.90625 L 20.078125 0.90625 C 20.328125 0.90625 20.53125 1.109375 20.53125 1.355469 L 20.53125 1.808594 C 20.53125 1.878906 20.511719 1.941406 20.484375 2 C 20.476562 2.015625 20.464844 2.027344 20.457031 2.042969 C 20.433594 2.082031 20.402344 2.121094 20.363281 2.152344 C 20.285156 2.21875 20.1875 2.261719 20.078125 2.261719 L 17.488281 2.261719 C 17.238281 2.261719 17.035156 2.464844 17.035156 2.714844 C 17.035156 2.964844 17.238281 3.167969 17.488281 3.167969 L 19.707031 3.167969 C 19.6875 3.257812 19.667969 3.347656 19.664062 3.441406 C 19.644531 3.882812 19.8125 4.285156 20.144531 4.589844" fill="url(#a)"/>
</svg>

<svg xmlns="http://www.w3.org/2000/svg" width="32" height="32" viewBox="0 0 24 24">
    <defs>
        <linearGradient id="a" gradientUnits="userSpaceOnUse" x1="1.663" y1="26.521" x2="51.379" y2="26.521" gradientTransform="scale(.45247)">
            <stop offset="0" stop-color="#fff"/>
            <stop offset="1"/>
        </linearGradient>
    </defs>
    <path d="M23.246 8.617v-.472c0-2.13-1.254-3.18-2.172-3.954-.086-.07-.281-.226-.426-.398a.496.496 0 0 1-.078-.313.785.785 0 0 1 .32-.585c.016-.012.028-.028.044-.04.054-.046.105-.093.156-.148a.858.858 0 0 0 .055-.07c.046-.055.082-.114.117-.176a.384.384 0 0 0 .137-.352c.023-.097.035-.195.035-.3v-.454C21.434.61 20.828 0 20.078 0h-4.976c-.75 0-1.36.61-1.36 1.355v.454c0 .105.016.207.04.304.003.02.011.043.019.067.023.074.047.148.082.218l.035.067c.039.066.082.133.133.195.011.016.027.031.039.047a1.477 1.477 0 0 0 .219.203c.187.133.32.344.347.547a.483.483 0 0 1-.11.379.543.543 0 0 1-.081.082c-.102.09-.211.18-.32.27-.934.773-2.211 1.828-2.211 3.957v5.105l-.008-.008c-.805-.68-1.086-1.281-1.184-1.625.445-.222.754-.68.754-1.21a1.36 1.36 0 0 0-1.36-1.356H4.708c-.746 0-1.355.61-1.355 1.355 0 .567.343 1.051.836 1.254-.11.352-.403.934-1.172 1.582C1.27 14.722.664 16.86.762 18.762c.004.039.004.078.008.117.011.219.035.43.07.637.008.058.02.113.027.168.035.191.074.375.121.554l.024.09c.043.156.09.305.144.453.02.059.047.114.07.172.004.016.008.035.016.05l.113.282h.012c.79 1.695 2.223 2.703 3.93 2.715h4.348a4.075 4.075 0 0 0 2.652-.992c.39.597 1.058.972 1.8.972h6.985c1.191 0 2.16-.968 2.16-2.16v-1.437h.004zM1.953 20.305a5.553 5.553 0 0 1-.105-.364l-.047-.199c-.016-.074-.028-.148-.043-.222a6.338 6.338 0 0 1-.098-1.098v-.004c0-.43.04-.867.125-1.297.004-.012.004-.023.008-.031.023-.113.05-.227.082-.34.016-.063.031-.121.05-.184.028-.093.055-.187.087-.277.035-.094.07-.187.11-.277.019-.051.038-.106.062-.157H6.05c.25 0 .453.204.453.454v3.62c0 .247-.203.45-.453.45H1.977l-.024-.074zm10.8.593a4.34 4.34 0 0 1-.151.301c-.02.035-.043.07-.063.11a4.23 4.23 0 0 1-.441.62l-.114.134c-.625.66-1.425 1.023-2.34 1.03h-4.34c-1.23-.007-2.25-.663-2.913-1.808h3.66c.75 0 1.36-.61 1.36-1.36V16.31c0-.75-.61-1.36-1.36-1.36H2.687c.254-.367.555-.71.915-1.015 1.023-.868 1.375-1.68 1.496-2.168h.574a.453.453 0 0 0 0-.907h-.965a.45.45 0 0 1-.45-.453c0-.25.2-.453.45-.453h5.43a.453.453 0 0 1 0 .906H7.988a.453.453 0 0 0 0 .907h1.86c.117.488.468 1.3 1.492 2.168.234.199.445.414.633.64l.058.074a4.96 4.96 0 0 1 .395.57c.047.075.09.15.133.227.058.11.117.223.168.332.003.012.011.024.015.036.5 1.109.633 2.347.485 3.464 0 .004-.004.004-.004.008-.016.113-.036.223-.055.332-.02.086-.035.168-.055.25-.011.043-.02.086-.031.125a5.023 5.023 0 0 1-.238.695c-.028.07-.059.141-.09.211zm9.587-1.421h-4.07V9.52h4.07zm-2.188-14.88c.11.094.223.188.34.29.867.726 1.848 1.55 1.848 3.258v.472h-4.977V20.38h4.977v1.437c0 .696-.563 1.258-1.258 1.258h-6.984c-.504 0-.95-.3-1.149-.754a5.65 5.65 0 0 0 .754-1.324c.008-.023.016-.047.024-.066.02-.051.043-.098.062-.149a5.592 5.592 0 0 0 .106-.34c.554-1.851.398-4.336-1.055-6.234V8.145c0-1.704.996-2.532 1.879-3.258l.336-.282c.066-.058.125-.117.18-.183.253-.297.367-.68.32-1.074-.008-.063-.028-.121-.043-.18h.168a.453.453 0 0 0 0-.906h-.578a.44.44 0 0 1-.29-.11c-.015-.015-.03-.027-.042-.043a.39.39 0 0 1-.079-.113c-.004-.008-.007-.02-.011-.031a.398.398 0 0 1-.032-.156v-.454c0-.246.204-.449.454-.449h4.976c.25 0 .453.203.453.45v.453c0 .07-.02.132-.047.191-.007.016-.02.027-.027.043a.411.411 0 0 1-.094.11.438.438 0 0 1-.285.109h-2.59a.453.453 0 0 0 0 .906h2.219c-.02.09-.039.18-.043.273-.02.442.148.844.48 1.149" fill="url(#a)"/>
</svg>
